X: 129
T: No_55_Song_of_the_Chief.krn
%%abc-version 2.0
%%abcx-abcm2ps-target-version 5.9.1 (29 Sep 2008)
%%abc-creator hum2abc beta
%%abcx-conversion-date 2020/08/10 18:54:56
%%gracespace 0 6 6
%%humdrum-veritas 4263923364
%%humdrum-veritas-data 694992303
%%linebreak <none>
%%barnumbers 0
L: 1/8
M: 5/4
%%staves {1 2}
V: 1 clef=bass
V: 2 clef=bass
K: C
[V:1] [K:clef=bass][M:5/4]D4C2A,>A,A,2 | 
[V:2] [K:clef=bass][M:5/4]G,,G,,G,,G,,G,,G,, G,,G,,G,,G,, | 
[V:1] D4C2A,>A,A,2 | 
[V:2] z8z2 | 
[V:1] CDC2A,<A, A,/E,/E,D,2 | 
[V:2] z8z2 | 
[V:1] C,>A,,C,2D,>D, D,D,C,/C,3/ | 
[V:2] z8z2 | 
[V:1] A,,A,,A,,2-A,,6 | 
[V:2] z8z2 | 
[V:1] C4A,<A, A,/E,/E,D,2 | 
[V:2] z8z2 | 
[V:1] C,>A,,C,2D,>D, D,D,C,/C,3/ | 
[V:2] z8z2 | 
[V:1] A,,A,,A,,2A,,6 |]  
[V:2] z8z2 |]  


